public/themes/horror/mirror.svg

<?xml version="1.0" encoding="iso-8859-1"?>
<!-- Uploaded to: SVG Repo, www.svgrepo.com, Generator: SVG Repo Mixer Tools -->
<!DOCTYPE svg PUBLIC "-//W3C//DTD SVG 1.1//EN" "http://www.w3.org/Graphics/SVG/1.1/DTD/svg11.dtd">
<svg fill="#800a00" version="1.1" id="Capa_1" xmlns="http://www.w3.org/2000/svg" xmlns:xlink="http://www.w3.org/1999/xlink" 
	 width="800px" height="800px" viewBox="0 0 31.342 31.342"
	 xml:space="preserve">
<g>
	<path d="M19.438,6.188l0.719,0.295l-7.687,18.673l-0.718-0.295L19.438,6.188z M17.017,6.935L16.299,6.64l-3.541,8.603l0.718,0.295
		L17.017,6.935z M14.477,24.021l0.718,0.295l3.54-8.604l-0.718-0.295L14.477,24.021z M26.146,21.25
		c-0.288,0.773-1.06,1.223-1.845,1.141c0.604,0.426,0.904,1.197,0.688,1.945c-0.254,0.873-1.12,1.395-1.995,1.25
		c0.5,0.707,0.429,1.689-0.217,2.307c-0.609,0.584-1.526,0.646-2.203,0.201c0,0,0,0-0.001,0c0.386,0.842,0.068,1.848-0.755,2.299
		c-0.798,0.437-1.777,0.191-2.293-0.529c-0.146,0.854-0.893,1.498-1.786,1.478c-0.905-0.021-1.628-0.715-1.72-1.592
		c-0.046-0.013-0.092-0.022-0.137-0.037c-0.53,0.709-1.514,0.933-2.302,0.479c-0.722-0.414-1.039-1.258-0.82-2.024
		c-0.724,0.369-1.628,0.207-2.17-0.442c-0.542-0.65-0.539-1.57-0.048-2.216c-0.869,0.211-1.784-0.239-2.119-1.098
		c-0.294-0.752-0.044-1.58,0.553-2.063c-0.753-0.029-1.436-0.529-1.646-1.296c-0.211-0.766,0.117-1.547,0.75-1.957
		c-0.715-0.176-1.276-0.778-1.352-1.551c-0.083-0.873,0.479-1.655,1.297-1.881c-0.815-0.225-1.378-1.004-1.295-1.876
		c0.087-0.912,0.847-1.588,1.741-1.603c-0.821-0.303-1.316-1.167-1.121-2.045c0.199-0.89,1.032-1.467,1.917-1.375
		C6.48,8.29,6.161,7.294,6.566,6.45c0.425-0.886,1.479-1.263,2.367-0.858c0.002-0.003,0.004-0.007,0.006-0.009
		C8.342,4.924,8.293,3.913,8.87,3.202c0.577-0.71,1.571-0.87,2.338-0.426c-0.256-0.802,0.085-1.698,0.856-2.108
		c0.773-0.412,1.71-0.192,2.232,0.475C14.552,0.476,15.195,0,15.952,0c0.88,0,1.604,0.64,1.749,1.479
		c0.021,0.006,0.04,0.011,0.061,0.017c0.548-0.625,1.478-0.799,2.226-0.368c0.752,0.433,1.064,1.331,0.791,2.122
		c0.622-0.33,1.405-0.272,1.978,0.208c0.695,0.585,0.821,1.586,0.337,2.329c0.85-0.173,1.719,0.29,2.023,1.129
		c0.27,0.748,0.004,1.553-0.597,2.013c0.691,0.012,1.342,0.429,1.617,1.11c0.341,0.843-0.017,1.787-0.792,2.217
		c0.831,0.243,1.384,1.06,1.262,1.944c-0.098,0.695-0.586,1.234-1.211,1.439c0,0.02-0.001,0.039-0.001,0.059
		c0.609,0.2,1.092,0.715,1.204,1.391c0.148,0.896-0.404,1.74-1.256,1.99C26.102,19.5,26.463,20.416,26.146,21.25z M8.736,25.3
		c-0.016-0.026-0.033-0.054-0.049-0.082c0.012,0.031,0.024,0.062,0.037,0.095C8.728,25.311,8.732,25.305,8.736,25.3z M23.845,15.602
		c0-7.088-3.603-12.854-8.029-12.854c-4.427,0-8.03,5.767-8.03,12.854c0,7.087,3.603,12.854,8.03,12.854
		C20.242,28.457,23.845,22.689,23.845,15.602z"/>
</g>
</svg>

<?xml version="1.0" encoding="UTF-8" standalone="no"?>
<!-- Uploaded to: SVG Repo, www.svgrepo.com, Generator: SVG Repo Mixer Tools -->

<svg
   fill="#800a00"
   version="1.1"
   id="Capa_1"
   width="559.0954"
   height="800.0116"
   viewBox="0 0 21.90396 31.342454"
   xml:space="preserve"
   sodipodi:docname="mirror.svg"
   inkscape:version="1.4.2 (ebf0e940, 2025-05-08)"
   xmlns:inkscape="http://www.inkscape.org/namespaces/inkscape"
   xmlns:sodipodi="http://sodipodi.sourceforge.net/DTD/sodipodi-0.dtd"
   xmlns="http://www.w3.org/2000/svg"
   xmlns:svg="http://www.w3.org/2000/svg"><defs
   id="defs1" /><sodipodi:namedview
   id="namedview1"
   pagecolor="#ffffff"
   bordercolor="#000000"
   borderopacity="0.25"
   inkscape:showpageshadow="2"
   inkscape:pageopacity="0.0"
   inkscape:pagecheckerboard="0"
   inkscape:deskcolor="#d1d1d1"
   inkscape:zoom="0.0325"
   inkscape:cx="261.53846"
   inkscape:cy="400"
   inkscape:window-width="896"
   inkscape:window-height="245"
   inkscape:window-x="0"
   inkscape:window-y="39"
   inkscape:window-maximized="0"
   inkscape:current-layer="Capa_1" />
<g
   id="g1"
   transform="translate(-4.7198828)">
	<path
   d="m 19.438,6.188 0.719,0.295 -7.687,18.673 -0.718,-0.295 z m -2.421,0.747 -0.718,-0.295 -3.541,8.603 0.718,0.295 z m -2.54,17.086 0.718,0.295 3.54,-8.604 -0.718,-0.295 z M 26.146,21.25 c -0.288,0.773 -1.06,1.223 -1.845,1.141 0.604,0.426 0.904,1.197 0.688,1.945 -0.254,0.873 -1.12,1.395 -1.995,1.25 0.5,0.707 0.429,1.689 -0.217,2.307 -0.609,0.584 -1.526,0.646 -2.203,0.201 0,0 0,0 -0.001,0 0.386,0.842 0.068,1.848 -0.755,2.299 -0.798,0.437 -1.777,0.191 -2.293,-0.529 -0.146,0.854 -0.893,1.498 -1.786,1.478 -0.905,-0.021 -1.628,-0.715 -1.72,-1.592 -0.046,-0.013 -0.092,-0.022 -0.137,-0.037 -0.53,0.709 -1.514,0.933 -2.302,0.479 C 10.858,29.778 10.541,28.934 10.76,28.168 10.036,28.537 9.132,28.375 8.59,27.726 8.048,27.076 8.051,26.156 8.542,25.51 7.673,25.721 6.758,25.271 6.423,24.412 6.129,23.66 6.379,22.832 6.976,22.349 6.223,22.32 5.54,21.82 5.33,21.053 5.119,20.287 5.447,19.506 6.08,19.096 5.365,18.92 4.804,18.318 4.728,17.545 4.645,16.672 5.207,15.89 6.025,15.664 5.21,15.439 4.647,14.66 4.73,13.788 4.817,12.876 5.577,12.2 6.471,12.185 5.65,11.882 5.155,11.018 5.35,10.14 5.549,9.25 6.382,8.673 7.267,8.765 6.48,8.29 6.161,7.294 6.566,6.45 6.991,5.564 8.045,5.187 8.933,5.592 8.935,5.589 8.937,5.585 8.939,5.583 8.342,4.924 8.293,3.913 8.87,3.202 9.447,2.492 10.441,2.332 11.208,2.776 10.952,1.974 11.293,1.078 12.064,0.668 12.837,0.256 13.774,0.476 14.296,1.143 14.552,0.476 15.195,0 15.952,0 c 0.88,0 1.604,0.64 1.749,1.479 0.021,0.006 0.04,0.011 0.061,0.017 0.548,-0.625 1.478,-0.799 2.226,-0.368 0.752,0.433 1.064,1.331 0.791,2.122 0.622,-0.33 1.405,-0.272 1.978,0.208 0.695,0.585 0.821,1.586 0.337,2.329 0.85,-0.173 1.719,0.29 2.023,1.129 0.27,0.748 0.004,1.553 -0.597,2.013 0.691,0.012 1.342,0.429 1.617,1.11 0.341,0.843 -0.017,1.787 -0.792,2.217 0.831,0.243 1.384,1.06 1.262,1.944 -0.098,0.695 -0.586,1.234 -1.211,1.439 0,0.02 -0.001,0.039 -0.001,0.059 0.609,0.2 1.092,0.715 1.204,1.391 0.148,0.896 -0.404,1.74 -1.256,1.99 0.759,0.421 1.12,1.337 0.803,2.171 z M 8.736,25.3 C 8.72,25.274 8.703,25.246 8.687,25.218 8.699,25.249 8.711,25.28 8.724,25.313 8.728,25.311 8.732,25.305 8.736,25.3 Z m 15.109,-9.698 c 0,-7.088 -3.603,-12.854 -8.029,-12.854 -4.427,0 -8.03,5.767 -8.03,12.854 0,7.087 3.603,12.854 8.03,12.854 4.426,0.001 8.029,-5.767 8.029,-12.854 z"
   id="path1" />
</g>
</svg>
